src/icons/backup-seed-notification.svg

<svg viewBox="0 0 40 40" fill="none" xmlns="http://www.w3.org/2000/svg">
    <path d="M14.3258 11.0081H29.8708V10.8366C29.8313 8.0918 28.3533 6.66663 25.5557 6.66663H7.66182C4.81146 6.66663 3.3335 8.13139 3.3335 10.9554V23.4916C3.3335 26.2892 4.78507 27.7408 7.59583 27.7672H8.07089V17.2235C8.07089 13.3307 10.4198 11.0081 14.3258 11.0081ZM14.3258 34.0353H32.3385C35.1889 34.0353 36.6668 32.5706 36.6668 29.7598V17.2235C36.6668 14.3995 35.1889 12.9348 32.3385 12.9348H14.3258C11.4755 12.9348 9.99752 14.3995 9.99752 17.2235V29.7598C9.99752 32.5838 11.4755 34.0353 14.3258 34.0353ZM18.4298 28.8361V23.4916C18.4298 22.5547 18.8125 22.0665 19.5779 22.0005V20.4565C19.5779 17.9229 21.1086 16.2338 23.3388 16.2338C25.5821 16.2338 27.1129 17.9229 27.1129 20.4565V22.0005C27.8782 22.0665 28.2609 22.5547 28.2609 23.4916V28.8361C28.2609 29.8786 27.7859 30.3668 26.8225 30.3668H19.8682C18.8917 30.3668 18.4298 29.8786 18.4298 28.8361ZM21.201 21.9609H25.4897V20.3114C25.4897 18.807 24.632 17.8041 23.3388 17.8041C22.0456 17.8041 21.201 18.807 21.201 20.3114V21.9609Z" fill="white"/>
</svg>

<svg viewBox="0 0 40 40" fill="none" xmlns="http://www.w3.org/2000/svg"><path d="M14.326 11.008H29.87v-.171c-.04-2.745-1.518-4.17-4.315-4.17H7.662c-2.85 0-4.329 1.464-4.329 4.288v12.537c0 2.797 1.452 4.249 4.263 4.275h.475V17.224c0-3.893 2.349-6.216 6.255-6.216zm0 23.027h18.013c2.85 0 4.328-1.464 4.328-4.275V17.223c0-2.823-1.478-4.288-4.328-4.288H14.326c-2.85 0-4.328 1.464-4.328 4.289V29.76c0 2.824 1.478 4.275 4.328 4.275zm4.104-5.199v-5.344c0-.937.383-1.425 1.148-1.492v-1.544c0-2.533 1.53-4.222 3.76-4.222 2.244 0 3.775 1.689 3.775 4.222V22c.765.067 1.148.555 1.148 1.492v5.344c0 1.043-.475 1.53-1.438 1.53h-6.955c-.976 0-1.438-.487-1.438-1.53zm2.771-6.875h4.289v-1.65c0-1.504-.858-2.507-2.151-2.507-1.293 0-2.138 1.003-2.138 2.507v1.65z" fill="#fff"/></svg>
